usr/share/icons/biglinux-icons-material/scalable/mimetypes/text-x-go.svg

<svg width="24" height="24" viewBox="0 0 24 24" fill="none" xmlns="http://www.w3.org/2000/svg">
<rect x="1" y="1" width="22" height="22" rx="6.6" fill="url(#paint0_radial_21_1579)"/>
<path d="M11.8355 10.2731C11.1674 10.4428 10.7114 10.57 10.0538 10.7397C9.89477 10.7821 9.88417 10.7927 9.7463 10.6337C9.58723 10.4534 9.47058 10.3367 9.24787 10.2307C8.57976 9.90193 7.93286 9.99737 7.32837 10.3898C6.60724 10.8564 6.23606 11.5457 6.24667 12.4047C6.25727 13.2531 6.84055 13.953 7.67834 14.0697C8.39948 14.1651 9.00396 13.9106 9.48118 13.3697C9.57663 13.2531 9.66146 13.1258 9.76751 12.9774H7.72076C7.49805 12.9774 7.44503 12.8395 7.51926 12.6592C7.65713 12.3305 7.91165 11.779 8.06012 11.5033C8.09193 11.4396 8.16617 11.3336 8.32524 11.3336H12.1854C12.1642 11.6199 12.1642 11.9063 12.1218 12.1926C12.0052 12.9562 11.7188 13.6561 11.2522 14.2712C10.4887 15.2786 9.49179 15.9043 8.2298 16.074C7.19051 16.2119 6.22546 16.0104 5.37706 15.3741C4.59229 14.7802 4.14689 13.9954 4.03023 13.0198C3.89237 11.8638 4.23173 10.8246 4.93165 9.91253C5.68461 8.92627 6.68147 8.30058 7.90104 8.07788C8.89791 7.89759 9.85235 8.01425 10.7114 8.59752C11.2734 8.96869 11.6764 9.47773 11.9415 10.0928C12.0052 10.1883 11.9627 10.2413 11.8355 10.2731Z" fill="#31C6B7"/>
<path d="M15.3457 16.1376C14.3807 16.1164 13.5005 15.8407 12.7581 15.2044C12.1324 14.6636 11.74 13.9742 11.6128 13.1576C11.4219 11.9593 11.7506 10.8988 12.4718 9.95495C13.2459 8.93688 14.1792 8.40663 15.4412 8.18392C16.5229 7.99304 17.5409 8.09909 18.4636 8.72478C19.3014 9.29745 19.821 10.0716 19.9589 11.0897C20.1392 12.5214 19.7256 13.6879 18.7393 14.6848C18.0394 15.3953 17.1804 15.8407 16.1941 16.0422C15.9078 16.0952 15.6215 16.1058 15.3457 16.1376ZM17.8697 11.8532C17.8591 11.7154 17.8591 11.6093 17.8379 11.5033C17.647 10.4534 16.6819 9.85951 15.6745 10.0928C14.6882 10.3155 14.0519 10.9412 13.8186 11.9381C13.6277 12.7653 14.0307 13.6031 14.7943 13.9424C15.3775 14.1969 15.9608 14.1651 16.5229 13.8788C17.3607 13.444 17.8167 12.7653 17.8697 11.8532Z" fill="#31C6B7"/>
<defs>
<radialGradient id="paint0_radial_21_1579" cx="0" cy="0" r="1" gradientUnits="userSpaceOnUse" gradientTransform="translate(17.5 1) rotate(116.565) scale(24.5967)">
<stop stop-color="#F4F4F4"/>
<stop offset="1" stop-color="#BBBBBB"/>
</radialGradient>
</defs>
</svg>

<svg xmlns="http://www.w3.org/2000/svg" width="24" height="24" fill="none"><rect width="22" height="22" x="1" y="1" fill="url(#a)" rx="6.6"/><path fill="#31C6B7" d="M11.835 10.273c-.668.17-1.124.297-1.781.467-.16.042-.17.053-.308-.106-.159-.18-.275-.297-.498-.403-.668-.33-1.315-.234-1.92.159-.72.466-1.092 1.156-1.081 2.015.01.848.594 1.548 1.431 1.665.721.095 1.326-.16 1.803-.7.096-.117.18-.244.287-.393H7.72c-.223 0-.276-.138-.202-.318.138-.329.393-.88.541-1.156a.286.286 0 0 1 .265-.17h3.86c-.02.287-.02.573-.063.86a4.522 4.522 0 0 1-.87 2.078c-.763 1.008-1.76 1.633-3.022 1.803-1.04.138-2.005-.064-2.853-.7-.785-.594-1.23-1.379-1.347-2.354-.138-1.156.202-2.195.902-3.107.753-.987 1.75-1.612 2.969-1.835.997-.18 1.951-.064 2.81.52.562.37.965.88 1.23 1.495.064.095.022.148-.106.18Z"/><path fill="#31C6B7" d="M15.346 16.138c-.965-.022-1.845-.297-2.588-.934a3.326 3.326 0 0 1-1.145-2.046c-.191-1.199.138-2.26.859-3.203.774-1.018 1.707-1.548 2.97-1.771 1.08-.191 2.099-.085 3.022.54.837.573 1.357 1.348 1.495 2.366.18 1.431-.233 2.598-1.22 3.595-.7.71-1.559 1.156-2.545 1.357-.286.053-.572.064-.848.096Zm2.524-4.285c-.01-.138-.01-.244-.032-.35-.191-1.05-1.156-1.643-2.164-1.41-.986.223-1.622.848-1.855 1.845-.191.827.212 1.665.975 2.004.583.255 1.167.223 1.729-.063.838-.435 1.294-1.114 1.347-2.026Z"/><defs><radialGradient id="a" cx="0" cy="0" r="1" gradientTransform="rotate(116.565 8.441 5.908) scale(24.5967)" gradientUnits="userSpaceOnUse"><stop stop-color="#F4F4F4"/><stop offset="1" stop-color="#BBB"/></radialGradient></defs></svg>
